public/config/images/linkedin@2x.svg

<svg width="20" height="20" viewBox="0 0 20 20" fill="none" xmlns="http://www.w3.org/2000/svg">
<g clip-path="url(#clip0_356_206)">
<path d="M0 2.5264C0 1.88666 0.223912 1.35888 0.671716 0.943072C1.11952 0.527242 1.70169 0.319336 2.41818 0.319336C3.12189 0.319336 3.69123 0.524037 4.12626 0.933476C4.57406 1.3557 4.79797 1.90585 4.79797 2.58398C4.79797 3.19812 4.58047 3.70989 4.14545 4.11933C3.69764 4.54155 3.10909 4.75266 2.37979 4.75266H2.3606C1.65689 4.75266 1.08755 4.54155 0.652524 4.11933C0.217502 3.69711 0 3.16613 0 2.5264ZM0.249495 19.3193V6.49912H4.51009V19.3193H0.249495ZM6.8707 19.3193H11.1313V12.1607C11.1313 11.7129 11.1825 11.3675 11.2848 11.1244C11.4639 10.6893 11.7358 10.3215 12.1005 10.0208C12.4651 9.72016 12.9225 9.56983 13.4727 9.56983C14.9057 9.56983 15.6222 10.5358 15.6222 12.4678V19.3193H19.8828V11.9688C19.8828 10.0752 19.435 8.63902 18.5394 7.66023C17.6437 6.68145 16.4602 6.19205 14.9889 6.19205C13.3384 6.19205 12.0525 6.90215 11.1313 8.32235V8.36074H11.1121L11.1313 8.32235V6.49912H6.8707C6.89628 6.90855 6.90908 8.1816 6.90908 10.3183C6.90908 12.455 6.89628 15.4553 6.8707 19.3193Z" fill="#F69382"/>
</g>
<defs>
<clipPath id="clip0_356_206">
<rect width="19.8828" height="19" fill="white" transform="translate(0 0.319336)"/>
</clipPath>
</defs>
</svg>

<svg width="20" height="20" fill="none" xmlns="http://www.w3.org/2000/svg"><g clip-path="url(#clip0_356_206)"><path d="M0 2.526C0 1.886.224 1.36.672.943 1.12.527 1.702.32 2.418.32c.704 0 1.273.205 1.708.614.448.423.672.973.672 1.651 0 .614-.218 1.126-.653 1.535-.447.423-1.036.634-1.765.634h-.02c-.703 0-1.272-.211-1.707-.634C.218 3.697 0 3.166 0 2.526zM.25 19.32V6.5h4.26v12.82H.25zm6.62 0h4.261v-7.158c0-.448.051-.793.154-1.037.179-.435.45-.803.816-1.103.364-.3.821-.451 1.372-.451 1.433 0 2.15.966 2.15 2.898v6.851h4.26v-7.35c0-1.894-.448-3.33-1.344-4.309-.895-.979-2.079-1.468-3.55-1.468-1.65 0-2.937.71-3.858 2.13v.039h-.019l.02-.039V6.5H6.87c.025.41.038 1.683.038 3.82 0 2.136-.013 5.136-.038 9z" fill="#F69382"/></g><defs><clipPath id="clip0_356_206"><path fill="#fff" transform="translate(0 .32)" d="M0 0h19.883v19H0z"/></clipPath></defs></svg>
